X: 2399
M: C
L: 1/8
K: G
ve2d2 B2G2 | B2A2 (3fed (3cBA |\
ve2d2 gdBG | B2A2 G2 :|
|: ud2 |\
g2f2 e2d2 | e2d2 B4 |\
ve2d2 cBAG | FAag (3fed (3cBA |\
ve2d2 gdBG | B2A2 G2 :|


